X:1
T:Bog of Rannes, The
T:Bog of Rannes, The
T:Alexander Walker
C:Alexander Walker
L:1/8
M:6/8
K:E
V:1 treble 
V:1
 B | efg BGB | cAc BGB | efg BGB | cGF F2 B | efg eBG | cAc BGB | ece BGB | GEE E2 :: F | EFB BGE | %11
 cAc BGE | EGB BAG | Fff f2 G | EGB BGE | cAc Bcd | ece BGB | GEE E2 :| %18

